web/workspace/public/assets/icons/white/task-list.svg

<svg xmlns="http://www.w3.org/2000/svg" width="30" height="30" viewBox="0 0 30 30"><path d="M9 6v2h20V6H9zm-8 4h6V4H1v6zm2-4h2v2H3V6zm6 10h20v-2H9v2zm-8 2h6v-6H1v6zm2-4h2v2H3v-2zm6 10h20v-2H9v2zm-8 2h6v-6H1v6zm2-4h2v2H3v-2z" fill="#fff"/></svg>

<?xml version="1.0" encoding="iso-8859-1"?>
<!-- Generator: Adobe Illustrator 14.0.0, SVG Export Plug-In . SVG Version: 6.00 Build 43363)  -->
<!DOCTYPE svg PUBLIC "-//W3C//DTD SVG 1.1//EN" "http://www.w3.org/Graphics/SVG/1.1/DTD/svg11.dtd">
<svg version="1.1" id="Layer_1" xmlns="http://www.w3.org/2000/svg" xmlns:xlink="http://www.w3.org/1999/xlink" x="0px" y="0px"
	 width="30px" height="30px" viewBox="0 0 30 30" style="enable-background:new 0 0 30 30;" xml:space="preserve">
<path style="fill:#fff" d="M9,6v2h20V6H9z M1,10h6V4H1V10z M3,6h2v2H3V6z M9,16h20v-2H9V16z M1,18h6v-6H1V18z M3,14h2v2H3V14z M9,24h20v-2H9V24z M1,26
	h6v-6H1V26z M3,22h2v2H3V22z"/>
</svg>
